X: 62
T:Chinese Breakdown
% Nottingham Music Database
S:Kevin Briggs, via EF
M:4/4
L:1/4
K:D
P:A
A|"D"dd BA|"D"FF2A|"D"dd BA|"Em"E3A|"A"cc BA|"A"cc2B|
"A7"(3A/2B/2A/2^G/2A/2 BA|"D"F2 -"A7"FA|"D"dd BA|"D"FF2F/2E/2|\
"D7"D"d"D "c#"E"c"F|"G/b"G4|
"Em"ee2f/2e/2|"A7"cc2c/2B/2|"A7"AA Bc|"D"dc "A7"de|"D"fa/2f/2 ed|"D"ff3|
"D"fa/2f/2 ed|"A"c3e|"A"aa2a|"A"gg2B|"A7"cc BB|"D"A2 -"A7"A2|"D"fa/2f/2 ed|
"D"ff2f/2e/2|"D7"d"d"d "e"c"f#"=c|"G"B4|"Em"ee2f/2e/2|"A7"cc2c/2B/2|"A7"AA Bc|\
"D"d3||<end>
<start>
